dist/images/icons/sort.svg

<svg width="20" height="20" viewBox="0 0 20 20" fill="none" xmlns="http://www.w3.org/2000/svg">
<path d="M19.9999 2.32044H1.12118V0H0V6.06912H1.12118V3.74868H19.9999V2.32044Z" fill="#A5A5A5"/>
<path d="M19.7196 9.28598H10.5603V6.96528H9.43931V9.28598H0.279971V10.7139H9.43931V13.0346H10.5603V10.7139H19.7196V9.28598Z" fill="#A5A5A5"/>
<path d="M18.8788 13.9309V16.2514H0.000100042V17.6796H18.8788V20H20V13.9309L18.8788 13.9309Z" fill="#A5A5A5"/>
</svg>

<svg width="20" height="20" fill="none" xmlns="http://www.w3.org/2000/svg"><path d="M20 2.32H1.12V0H0v6.07h1.121V3.748H20V2.32zm-.28 6.966h-9.16v-2.32H9.44v2.32H.28v1.428h9.16v2.32h1.12v-2.32h9.16V9.286zm-.841 4.644v2.321H0v1.429h18.88V20H20v-6.07h-1.121z" fill="#A5A5A5"/></svg>
